;Sliced by ideaMaker 5.1.4.8480, 2025-04-25 19:13:04 UTC-0400
;Slicer Version: 5.1.4.8480
;Dimension: 300.000 300.000 300.000 0.400 0.400
;Plate Shape: 0
;Origin Center: 0
;Extruder Offset #1: 0.000 0.000
;Filament Diameter #1: 1.750
;Filament Diameter #2: 1.750
;Filament Compensation #1: 90.000
;Filament Compensation #2: 90.000
;Filament Density #1: 1240.000
;Filament Density #2: 1240.000
;Filament Type #1: PLA
;Filament Type #2: PLA
;Filament Name #1: [Raise3D] Premium PLA 1.75mm
;Filament Name #2: [Raise3D] Premium PLA 1.75mm
;Printer Type: RAISE3D Pro3
;Firmware: RepRapFirmware
;Bounding Box: 135.450 167.649 131.425 168.575 0.000 5.900
;Model Gap: 0.000
M221 T0 S90.00
M140 S55.00
M104 T0 S205.00
M109 T0 S205.00
T0
M190 S55.00
M572 D0 S0.03
M572 D1 S0.03
G21
G90
M82
M107
G28
G1 Z0 F500
G92 E0
G1 Z0.2 F400
G1 X60 Y-2 F800
G1 X140 Y-2 E12 F200
G1 Z5 E15 F200
G92 E0
G1 F9000.0
M117 Printing...
M1001
;TOTAL_NUM: 1
;PRINTING_TIME: 0
;REMAINING_TIME: 915
;LAYER:0
;Z:0.300
;HEIGHT:0.300
M106 S0
M106 P2 S0
;PRINTING: NON-OBJECT
;PRINTING_ID: -1
G1 F2400 E-0.5000
M204 T1500.00
G0 F9000 X136.311 Y132.767
G0 F300 Z0.300
M204 P1000.00
;TYPE:SKIRT
;WIDTH:0.480
G1 F1500 E0.0000
G1 F900 X136.723 Y132.345 E0.0353
G1 X137.139 Y132.030 E0.0665
G1 X137.535 Y131.805 E0.0938
G1 X138.083 Y131.588 E0.1291
G1 X138.526 Y131.482 E0.1564
G1 X139.170 Y131.425 E0.1951
G1 X149.160 Y131.426 E0.7932
G1 X149.545 Y131.448 E0.8162
G1 X150.260 Y131.567 E0.8596
G1 X150.967 Y131.816 E0.9045
G1 X151.444 Y132.050 E0.9363
G1 X152.018 Y132.451 E0.9782
G1 X152.412 Y132.803 E1.0099
G1 X152.838 Y133.315 E1.0498
G1 X153.204 Y133.899 E1.0910
G1 X153.356 Y134.244 E1.1136
G1 X153.597 Y134.099 E1.1304
G1 X154.111 Y133.874 E1.1640
G1 X154.648 Y133.701 E1.1978
G1 X155.095 Y133.621 E1.2250
G1 X155.858 Y133.573 E1.2707
G1 X156.517 Y133.643 E1.3104
G1 X157.034 Y133.759 E1.3421
G1 X157.602 Y133.977 E1.3786
G1 X157.873 Y134.109 E1.3966
G1 X158.431 Y134.445 E1.4356
G1 X160.560 Y135.994 E1.5932
G1 X161.007 Y136.375 E1.6284
G1 X161.568 Y137.023 E1.6797
G1 X161.937 Y137.640 E1.7228
G1 X162.033 Y137.845 E1.7363
G1 X162.287 Y138.588 E1.7833
G1 X162.410 Y139.410 E1.8331
G1 X162.399 Y140.158 E1.8779
G1 X162.296 Y140.743 E1.9134
G1 X162.714 Y140.789 E1.9386
G1 X162.971 Y140.842 E1.9543
G1 X163.511 Y140.998 E1.9880
G1 X164.024 Y141.232 E2.0217
G1 X164.654 Y141.619 E2.0660
G1 X165.196 Y142.101 E2.1094
G1 X165.686 Y142.691 E2.1553
G1 X166.016 Y143.252 E2.1943
G1 X166.114 Y143.459 E2.2080
G1 X166.276 Y143.874 E2.2347
G1 X167.116 Y146.480 E2.3986
G1 X167.225 Y146.922 E2.4258
G1 X167.274 Y147.294 E2.4483
G1 X167.297 Y148.026 E2.4922
G1 X167.186 Y148.784 E2.5380
G1 X167.068 Y149.224 E2.5653
G1 X166.759 Y149.927 E2.6113
G1 X166.490 Y150.378 E2.6427
G1 X166.101 Y150.860 E2.6798
G1 X165.732 Y151.226 E2.7109
G1 X166.180 Y151.599 E2.7458
G1 X166.539 Y151.971 E2.7767
G1 X166.964 Y152.550 E2.8197
G1 X167.216 Y153.029 E2.8522
G1 X167.457 Y153.656 E2.8924
G1 X167.614 Y154.422 E2.9392
G1 X167.649 Y154.957 E2.9713
G1 X167.648 Y164.889 E3.5659
G1 X167.606 Y165.409 E3.5971
G1 X167.493 Y165.920 E3.6285
G1 X167.308 Y166.408 E3.6597
G1 X167.057 Y166.866 E3.6910
G1 X166.745 Y167.284 E3.7222
G1 X166.376 Y167.655 E3.7535
G1 X165.960 Y167.970 E3.7848
G1 X165.503 Y168.224 E3.8161
G1 X165.016 Y168.412 E3.8473
G1 X164.573 Y168.518 E3.8746
G1 X163.929 Y168.575 E3.9133
G1 X144.122 Y168.575 E5.0991
G1 X143.634 Y168.542 E5.1284
G1 X143.123 Y168.437 E5.1596
G1 X142.630 Y168.262 E5.1909
G1 X142.168 Y168.019 E5.2222
G1 X141.744 Y167.714 E5.2535
G1 X141.506 Y167.499 E5.2727
G1 X136.516 Y162.508 E5.6952
G1 X136.178 Y162.111 E5.7264
G1 X135.930 Y161.729 E5.7537
G1 X135.707 Y161.258 E5.7849
G1 X135.536 Y160.693 E5.8202
G1 X135.461 Y160.190 E5.8507
G1 X135.450 Y159.923 E5.8666
G1 X135.451 Y135.111 E7.3521
G1 X135.493 Y134.591 E7.3833
G1 X135.588 Y134.146 E7.4106
G1 X135.763 Y133.653 E7.4419
G1 X136.006 Y133.191 E7.4731
G1 X136.311 Y132.767 E7.5044
G0 F9000 X136.698 Y133.051
G1 F900 X137.016 Y132.725 E7.5317
G1 X137.376 Y132.447 E7.5589
G1 X137.772 Y132.222 E7.5862
G1 X138.195 Y132.055 E7.6134
G1 X138.638 Y131.949 E7.6407
G1 X139.170 Y131.905 E7.6726
G1 X149.136 Y131.905 E8.2693
G1 X149.471 Y131.922 E8.2894
G1 X150.102 Y132.020 E8.3276
G1 X150.760 Y132.249 E8.3693
G1 X151.171 Y132.445 E8.3966
G1 X151.702 Y132.812 E8.4352
G1 X152.045 Y133.112 E8.4625
G1 X152.431 Y133.570 E8.4983
G1 X152.797 Y134.154 E8.5396
G1 X153.005 Y134.647 E8.5716
G1 X153.116 Y134.988 E8.5931
G1 X153.403 Y134.780 E8.6143
G1 X153.789 Y134.539 E8.6416
G1 X154.303 Y134.314 E8.6752
G1 X154.735 Y134.173 E8.7024
G1 X155.130 Y134.100 E8.7264
G1 X155.809 Y134.051 E8.7672
G1 X156.418 Y134.113 E8.8038
G1 X156.863 Y134.207 E8.8311
G1 X157.392 Y134.409 E8.8650
G1 X157.663 Y134.541 E8.8830
G1 X158.149 Y134.833 E8.9169
G1 X160.252 Y136.362 E9.0726
G1 X160.647 Y136.693 E9.1035
G1 X161.157 Y137.270 E9.1496
G1 X161.502 Y137.844 E9.1897
G1 X161.598 Y138.049 E9.2032
G1 X161.813 Y138.662 E9.2421
G1 X161.930 Y139.407 E9.2873
G1 X161.926 Y140.077 E9.3274
G1 X161.835 Y140.609 E9.3597
G1 X161.666 Y141.192 E9.3960
G1 X161.965 Y141.192 E9.4139
G1 X162.617 Y141.259 E9.4532
G1 X162.874 Y141.312 E9.4689
G1 X163.313 Y141.435 E9.4962
G1 X163.791 Y141.652 E9.5276
G1 X164.011 Y141.774 E9.5426
G1 X164.393 Y142.022 E9.5699
G1 X164.874 Y142.457 E9.6087
G1 X165.315 Y142.995 E9.6504
G1 X165.600 Y143.491 E9.6846
G1 X165.678 Y143.660 E9.6958
G1 X165.819 Y144.022 E9.7190
G1 X166.650 Y146.595 E9.8809
G1 X166.759 Y147.037 E9.9082
G1 X166.798 Y147.353 E9.9272
G1 X166.817 Y148.039 E9.9683
G1 X166.722 Y148.660 E10.0059
G1 X166.604 Y149.100 E10.0332
G1 X166.344 Y149.685 E10.0715
G1 X166.115 Y150.078 E10.0988
G1 X165.760 Y150.522 E10.1328
G1 X165.439 Y150.846 E10.1601
G1 X164.927 Y151.236 E10.1986
G1 X165.477 Y151.635 E10.2393
G1 X165.835 Y151.932 E10.2672
G1 X166.194 Y152.304 E10.2981
G1 X166.541 Y152.776 E10.3332
G1 X166.768 Y153.201 E10.3620
G1 X167.009 Y153.828 E10.4022
G1 X167.143 Y154.514 E10.4441
G1 X167.169 Y154.957 E10.4707
G1 X167.169 Y164.855 E11.0632
G1 X167.137 Y165.309 E11.0905
G1 X167.042 Y165.754 E11.1177
G1 X166.885 Y166.181 E11.1450
G1 X166.670 Y166.582 E11.1722
G1 X166.401 Y166.949 E11.1994
G1 X166.083 Y167.275 E11.2267
G1 X165.723 Y167.553 E11.2539
G1 X165.327 Y167.778 E11.2812
G1 X164.904 Y167.945 E11.3084
G1 X164.461 Y168.051 E11.3357
G1 X163.929 Y168.095 E11.3677
G1 X144.122 Y168.095 E12.5535
G1 X143.668 Y168.063 E12.5807
G1 X143.223 Y167.968 E12.6080
G1 X142.796 Y167.811 E12.6352
G1 X142.395 Y167.596 E12.6624
G1 X142.028 Y167.327 E12.6897
G1 X141.831 Y167.146 E12.7057
G1 X136.879 Y162.194 E13.1250
G1 X136.581 Y161.850 E13.1522
G1 X136.333 Y161.468 E13.1795
G1 X136.142 Y161.056 E13.2067
G1 X136.010 Y160.620 E13.2339
G1 X135.941 Y160.170 E13.2612
G1 X135.930 Y159.903 E13.2772
G1 X135.930 Y135.145 E14.7594
G1 X135.962 Y134.691 E14.7867
G1 X136.057 Y134.246 E14.8139
G1 X136.214 Y133.819 E14.8411
G1 X136.429 Y133.418 E14.8684
G1 X136.698 Y133.051 E14.8956
;PRINTING: LOGO DE FREECAD EN FREECAD_Texturas.stl
;PRINTING_ID: 0
G1 F2400 E14.3956
G0 F9000 X139.890 Y135.865
;TYPE:WALL-INNER
;WIDTH:0.480
G1 F1500 E14.8956
G1 F900 X149.147 Y135.870 E15.4498
G1 X149.223 Y135.900 E15.4547
G1 X149.269 Y135.965 E15.4595
G1 X150.189 Y138.779 E15.6367
G1 X150.386 Y139.166 E15.6627
G1 X150.699 Y139.486 E15.6895
G1 X150.927 Y139.632 E15.7057
G1 X151.163 Y139.735 E15.7211
G1 X152.131 Y140.031 E15.7817
G1 X152.426 Y140.047 E15.7994
G1 X152.842 Y139.980 E15.8247
G1 X153.252 Y139.777 E15.8520
G1 X155.655 Y138.038 E16.0296
G1 X155.734 Y138.006 E16.0347
G1 X155.871 Y138.074 E16.0439
G1 X157.879 Y139.533 E16.1925
G1 X157.966 Y139.624 E16.2000
G1 X157.965 Y139.768 E16.2086
G1 X157.042 Y142.622 E16.3882
G1 X156.996 Y143.011 E16.4117
G1 X157.071 Y143.467 E16.4393
G1 X157.253 Y143.831 E16.4637
G1 X157.752 Y144.523 E16.5148
G1 X157.935 Y144.730 E16.5313
G1 X158.289 Y144.983 E16.5574
G1 X158.707 Y145.126 E16.5838
G1 X158.983 Y145.150 E16.6004
G1 X161.889 Y145.152 E16.7744
G1 X161.984 Y145.172 E16.7802
G1 X162.045 Y145.238 E16.7856
G1 X162.855 Y147.729 E16.9424
G1 X162.852 Y147.813 E16.9474
G1 X162.812 Y147.876 E16.9519
G1 X160.431 Y149.613 E17.1283
G1 X160.244 Y149.778 E17.1433
G1 X160.074 Y149.984 E17.1593
G1 X159.897 Y150.331 E17.1826
G1 X159.821 Y150.616 E17.2002
G1 X159.805 Y151.626 E17.2607
G1 X159.828 Y151.885 E17.2763
G1 X159.898 Y152.145 E17.2924
G1 X160.074 Y152.491 E17.3156
G1 X160.243 Y152.698 E17.3316
G1 X160.432 Y152.864 E17.3467
G1 X163.109 Y154.809 E17.5448
G1 X163.167 Y154.868 E17.5498
G1 X163.198 Y154.939 E17.5544
G1 X163.208 Y164.135 E18.1049
G1 X144.420 Y164.135 E19.2297
G1 X139.890 Y159.605 E19.6133
G1 X139.890 Y135.865 E21.0346
G1 F2400 E20.5346
G0 F9000 X139.900 Y135.965
G0 X139.410 Y135.385
M204 P500.00
;TYPE:WALL-OUTER
;WIDTH:0.480
G1 F1500 E21.0346
G1 F900 X149.124 Y135.385 E21.6161
G1 X149.262 Y135.399 E21.6244
G1 X149.454 Y135.475 E21.6368
G1 X149.576 Y135.567 E21.6459
G1 X149.703 Y135.747 E21.6591
G1 X150.634 Y138.594 E21.8384
G1 X150.781 Y138.883 E21.8579
G1 X151.004 Y139.111 E21.8770
G1 X151.154 Y139.207 E21.8876
G1 X151.330 Y139.284 E21.8991
G1 X152.215 Y139.555 E21.9545
G1 X152.401 Y139.565 E21.9657
G1 X152.694 Y139.518 E21.9834
G1 X153.003 Y139.365 E22.0041
G1 X155.420 Y137.616 E22.1827
G1 X155.578 Y137.551 E22.1929
G1 X155.740 Y137.532 E22.2027
G1 X155.902 Y137.554 E22.2125
G1 X156.120 Y137.661 E22.2270
G1 X158.196 Y139.170 E22.3807
G1 X158.361 Y139.342 E22.3949
G1 X158.436 Y139.503 E22.4056
G1 X158.461 Y139.738 E22.4197
G1 X158.430 Y139.890 E22.4290
G1 X157.513 Y142.725 E22.6074
G1 X157.481 Y143.000 E22.6240
G1 X157.533 Y143.318 E22.6433
G1 X157.665 Y143.582 E22.6609
G1 X158.127 Y144.223 E22.7082
G1 X158.258 Y144.371 E22.7201
G1 X158.511 Y144.552 E22.7387
G1 X158.807 Y144.653 E22.7574
G1 X159.004 Y144.670 E22.7693
G1 X161.938 Y144.672 E22.9449
G1 X162.136 Y144.713 E22.9570
G1 X162.295 Y144.801 E22.9679
G1 X162.449 Y144.969 E22.9815
G1 X162.512 Y145.105 E22.9905
G1 X163.330 Y147.637 E23.1498
G1 X163.342 Y147.808 E23.1601
G1 X163.311 Y147.967 E23.1698
G1 X163.236 Y148.120 E23.1800
G1 X163.139 Y148.232 E23.1888
G1 X160.732 Y149.988 E23.3672
G1 X160.590 Y150.113 E23.3785
G1 X160.478 Y150.249 E23.3891
G1 X160.348 Y150.504 E23.4062
G1 X160.300 Y150.683 E23.4173
G1 X160.285 Y151.609 E23.4728
G1 X160.302 Y151.801 E23.4843
G1 X160.348 Y151.972 E23.4949
G1 X160.478 Y152.227 E23.5120
G1 X160.590 Y152.364 E23.5226
G1 X160.732 Y152.489 E23.5340
G1 X163.422 Y154.443 E23.7330
G1 X163.572 Y154.594 E23.7458
G1 X163.678 Y154.840 E23.7618
G1 X163.689 Y164.615 E24.3470
G1 X144.221 Y164.615 E25.5125
G1 X139.410 Y159.804 E25.9198
G1 X139.410 Y135.385 E27.3818
G1 F2400 E26.8818
G0 F9000 X139.900 Y135.965
G0 X152.436 Y140.246
G0 X156.390 Y138.571
M204 P1000.00
;TYPE:SOLID-FILL
;WIDTH:0.400
G1 F1500 E27.3818
G1 F900 X157.795 Y139.976 E27.4809
G0 F900 X157.657 Y140.403
G1 F900 X155.512 Y138.259 E27.6322
G0 F900 X155.184 Y138.496
G1 F900 X157.519 Y140.831 E27.7970
G0 F900 X157.380 Y141.258
G1 F900 X154.856 Y138.734 E27.9750
G0 F900 X154.528 Y138.971
G1 F900 X157.242 Y141.685 E28.1665
G0 F900 X157.104 Y142.113
G1 F900 X154.200 Y139.209 E28.3714
G0 F900 X153.871 Y139.446
G1 F900 X156.965 Y142.540 E28.5897
G0 F900 X156.903 Y143.044
G1 F900 X153.543 Y139.683 E28.8268
G0 F900 X153.202 Y139.908
G1 F900 X157.165 Y143.872 E29.1065
G1 F2400 E28.6065
G0 F9000 X157.525 Y144.441
G0 X158.426 Y145.132
G1 F1500 E29.1065
G1 F900 X161.793 Y148.499 E29.3440
G0 F900 X162.119 Y148.260
G1 F900 X159.106 Y145.246 E29.5566
G0 F900 X159.671 Y145.246
G1 F900 X162.447 Y148.022 E29.7525
G0 F900 X162.768 Y147.778
G1 F900 X160.238 Y145.247 E29.9310
G0 F900 X160.803 Y145.247
G1 F900 X162.496 Y146.940 E30.0505
G0 F900 X162.225 Y146.103
G1 F900 X161.370 Y145.248 E30.1108
G1 F2400 E29.6108
G0 F9000 X161.465 Y148.737
G1 F1500 E30.1108
G1 F900 X152.810 Y140.082 E30.7215
G0 F900 X152.298 Y140.135
G1 F900 X161.138 Y148.976 E31.3452
G0 F900 X160.811 Y149.215
G1 F900 X151.549 Y139.953 E31.9987
G1 F2400 E31.4987
G0 F9000 X150.477 Y139.411
G0 X149.948 Y138.351
G1 F1500 E31.9987
G1 F900 X147.561 Y135.965 E32.1671
G0 F900 X146.996 Y135.965
G1 F900 X160.484 Y149.453 E33.1187
G0 F900 X160.175 Y149.710
G1 F900 X146.429 Y135.964 E34.0886
G0 F900 X145.864 Y135.964
G1 F900 X159.937 Y150.038 E35.0816
G0 F900 X159.769 Y150.435
G1 F900 X145.297 Y135.963 E36.1026
G0 F900 X144.732 Y135.963
G1 F900 X159.719 Y150.951 E37.1601
G0 F900 X159.709 Y151.507
G1 F900 X144.165 Y135.963 E38.2568
G0 F900 X143.599 Y135.963
G1 F900 X159.804 Y152.167 E39.4001
G1 F2400 E38.9001
G0 F9000 X160.088 Y152.649
G0 X161.117 Y153.481
G1 F1500 E39.4001
G1 F900 X163.101 Y155.465 E39.5401
G0 F900 X163.102 Y156.031
G1 F900 X143.033 Y135.962 E40.9561
G0 F900 X142.467 Y135.962
G1 F900 X163.103 Y156.597 E42.4120
G0 F900 X163.104 Y157.164
G1 F900 X141.901 Y135.961 E43.9080
G0 F900 X141.335 Y135.961
G1 F900 X163.104 Y157.730 E45.4439
G0 F900 X163.105 Y158.297
G1 F900 X140.769 Y135.961 E47.0198
G0 F900 X140.203 Y135.961
G1 F900 X163.106 Y158.863 E48.6357
G0 F900 X163.106 Y159.429
G1 F900 X139.985 Y136.308 E50.2671
G0 F900 X139.985 Y136.873
G1 F900 X163.107 Y159.996 E51.8985
G0 F900 X163.108 Y160.562
G1 F900 X139.985 Y137.439 E53.5299
G0 F900 X139.985 Y138.005
G1 F900 X163.109 Y161.129 E55.1614
G0 F900 X163.109 Y161.695
G1 F900 X139.985 Y138.571 E56.7930
G0 F900 X139.985 Y139.136
G1 F900 X163.110 Y162.261 E58.4246
G0 F900 X163.111 Y162.828
G1 F900 X139.985 Y139.702 E60.0562
G0 F900 X139.985 Y140.268
G1 F900 X163.111 Y163.393 E61.6879
G0 F900 X163.111 Y163.960
G1 F900 X139.985 Y140.833 E63.3196
G0 F900 X139.985 Y141.399
G1 F900 X162.623 Y164.038 E64.9168
G0 F900 X162.058 Y164.038
G1 F900 X139.985 Y141.965 E66.4742
G0 F900 X139.985 Y142.530
G1 F900 X161.492 Y164.038 E67.9917
G0 F900 X160.926 Y164.038
G1 F900 X139.985 Y143.096 E69.4692
G0 F900 X139.985 Y143.662
G1 F900 X160.361 Y164.038 E70.9068
G0 F900 X159.795 Y164.038
G1 F900 X139.985 Y144.227 E72.3046
G0 F900 X139.985 Y144.793
G1 F900 X159.229 Y164.038 E73.6624
G0 F900 X158.664 Y164.038
G1 F900 X139.985 Y145.359 E74.9803
G0 F900 X139.985 Y145.924
G1 F900 X158.098 Y164.038 E76.2583
G0 F900 X157.532 Y164.038
G1 F900 X139.985 Y146.490 E77.4964
G0 F900 X139.985 Y147.056
G1 F900 X156.967 Y164.038 E78.6945
G0 F900 X156.401 Y164.038
G1 F900 X139.985 Y147.621 E79.8528
G0 F900 X139.985 Y148.187
G1 F900 X155.835 Y164.038 E80.9711
G0 F900 X155.270 Y164.038
G1 F900 X139.985 Y148.753 E82.0496
G0 F900 X139.985 Y149.319
G1 F900 X154.704 Y164.038 E83.0881
G0 F900 X154.138 Y164.038
G1 F900 X139.985 Y149.884 E84.0867
G0 F900 X139.985 Y150.450
G1 F900 X153.572 Y164.038 E85.0454
G0 F900 X153.007 Y164.038
G1 F900 X139.985 Y151.016 E85.9641
G0 F900 X139.985 Y151.581
G1 F900 X152.441 Y164.038 E86.8430
G0 F900 X151.875 Y164.038
G1 F900 X139.985 Y152.147 E87.6819
G0 F900 X139.985 Y152.713
G1 F900 X151.310 Y164.038 E88.4810
G0 F900 X150.744 Y164.038
G1 F900 X139.985 Y153.278 E89.2401
G0 F900 X139.985 Y153.844
G1 F900 X150.178 Y164.038 E89.9593
G0 F900 X149.613 Y164.038
G1 F900 X139.985 Y154.410 E90.6386
G0 F900 X139.985 Y154.975
G1 F900 X149.047 Y164.038 E91.2780
G0 F900 X148.481 Y164.038
G1 F900 X139.985 Y155.541 E91.8775
G0 F900 X139.985 Y156.107
G1 F900 X147.916 Y164.038 E92.4371
G0 F900 X147.350 Y164.038
G1 F900 X139.985 Y156.672 E92.9568
G0 F900 X139.985 Y157.238
G1 F900 X146.784 Y164.038 E93.4365
G0 F900 X146.219 Y164.038
G1 F900 X139.985 Y157.804 E93.8764
G0 F900 X139.985 Y158.369
G1 F900 X145.653 Y164.038 E94.2763
G0 F900 X145.087 Y164.038
G1 F900 X139.985 Y158.935 E94.6363
